assets/img/linux.svg

<?xml version="1.0" encoding="UTF-8" standalone="no"?>
<svg width="26px" height="32px" viewBox="0 0 26 32" version="1.1" xmlns="http://www.w3.org/2000/svg" xmlns:xlink="http://www.w3.org/1999/xlink" xmlns:sketch="http://www.bohemiancoding.com/sketch/ns">
    <!-- Generator: Sketch 3.2 (9961) - http://www.bohemiancoding.com/sketch -->
    <title>linux</title>
    <desc>Created with Sketch.</desc>
    <defs></defs>
    <g id="Page-1" stroke="none" stroke-width="1" fill="none" fill-rule="evenodd" sketch:type="MSPage">
        <g id="linux" sketch:type="MSLayerGroup" fill="#D3D7D9">
            <g id="layer1" sketch:type="MSShapeGroup">
                <path d="M9.96517,6.321257 C9.555555,6.433258 9.498765,7.220346 9.68392,7.602507 C9.883244,8.013914 10.028188,8.21006 10.15267,8.321257 C10.402083,8.122855 10.627518,7.917546 10.90267,7.758757 C10.902965,7.618495 10.90797,7.470133 10.90267,7.321257 C10.87341,6.502256 10.403114,6.20151 9.96517,6.321257 L9.96517,6.321257 Z" id="path4032"></path>
                <path d="M14.27767,6.258757 C13.884481,6.212937 13.41842,6.510761 13.40267,7.071257 C13.39367,7.392342 13.3898,7.646831 13.49642,7.852507 C13.759125,7.964333 14.017054,8.077691 14.27767,8.196257 C14.641789,8.121667 15.010608,7.850575 15.02767,7.446257 C15.06215,6.629244 14.746079,6.313339 14.27767,6.258757 L14.27767,6.258757 Z" id="path4034"></path>
                <path d="M12.09017,7.665007 C11.885253,7.651997 11.65337,7.696877 11.27767,7.883757 C10.711769,8.165247 10.120087,8.660566 9.68392,9.071257 C9.57572,9.173137 9.493745,9.337133 9.46517,9.477507 C9.43659,9.617881 9.45426,9.700036 9.52767,9.758757 C9.58196,9.802177 9.57744,9.804867 9.59017,9.821257 C9.6029,9.837647 9.60806,9.864997 9.62142,9.883757 C9.63647,9.898417 9.63707,9.931217 9.65267,9.946257 C9.66921,9.967477 9.69293,9.976977 9.71517,10.008757 C10.018228,10.292704 10.427001,10.600585 11.09017,10.665007 C11.924526,10.746057 13.178475,10.410816 15.09017,9.133757 C15.10035,9.131057 15.11124,9.131057 15.12142,9.133757 C15.1316,9.131057 15.14249,9.131057 15.15267,9.133757 C15.15537,9.143937 15.15537,9.154827 15.15267,9.165007 C15.16285,9.162307 15.17374,9.162307 15.18392,9.165007 C15.18662,9.175187 15.18662,9.186077 15.18392,9.196257 C15.18662,9.206437 15.18662,9.217327 15.18392,9.227507 C15.17374,9.230207 15.16285,9.230207 15.15267,9.227507 C15.15537,9.237687 15.15537,9.248577 15.15267,9.258757 C13.228428,10.544198 11.964799,10.843717 11.09017,10.758757 C10.652856,10.716277 10.32386,10.584798 10.05892,10.415007 C10.06482,10.422507 10.05302,10.438657 10.05892,10.446257 C10.326016,10.790557 10.689265,11.227251 11.12142,11.571257 C11.256707,11.678949 11.649398,11.726735 12.09017,11.665007 C12.530942,11.603277 13.019809,11.432402 13.30892,11.227507 C13.927731,10.788953 14.364639,10.607635 14.84017,10.290007 C15.010817,10.176024 15.169006,10.069465 15.27767,9.946257 C15.386334,9.823049 15.461272,9.706741 15.46517,9.477507 C15.46867,9.273905 15.46657,9.19242 15.43392,9.133757 C15.40129,9.075097 15.275684,8.970665 14.93392,8.821257 C14.22915,8.513154 13.507745,8.144456 12.80892,7.883757 C12.530968,7.780066 12.295006,7.678013 12.09017,7.665007 L12.09017,7.665007 Z" id="path4079"></path>
                <path d="M9.29806,28.203387 C10.024622,28.890887 11.235782,28.868591 12.24642,28.82907 C14.513459,28.74042 15.960464,27.601965 17.507339,26.11759 C17.507339,26.476965 17.460289,27.372444 17.241206,28.414076 C16.959725,29.752367 17.082816,30.322111 17.145316,30.681486 C16.496878,30.368986 16.374142,30.381012 15.558922,30.383757 C14.447404,30.387457 13.376557,30.370407 12.293297,30.383757 C11.377599,30.395047 10.638246,30.445187 9.599184,30.921746 C10.310121,29.773309 9.977747,29.125262 9.29806,28.203387 L9.29806,28.203387 Z" id="path4048"></path>
                <path d="M12.55892,0.696257 C11.843052,0.730187 11.185307,0.886093 10.71517,1.102507 C9.573992,1.627813 8.6741,2.359146 8.49642,3.977507 C8.358748,5.231464 8.56497,6.622516 8.59017,7.883757 C8.63967,10.36195 8.754104,10.777767 8.74642,11.008757 C8.72976,11.509446 6.312588,14.365076 5.9339212,15.290007 C5.4956612,16.3605 5.0250902,17.339951 4.6214212,18.508757 C4.4396772,19.034988 4.1617512,19.502472 3.8714212,19.977507 C3.7031012,20.25291 3.3835632,20.38494 3.4026712,20.915007 C3.4161912,21.289908 3.4539712,21.665398 3.4339212,22.040007 C3.4231212,22.241893 3.5901712,22.415007 3.5901712,22.415007 C3.5469612,22.362187 4.0793532,21.774184 4.5276712,21.883757 C5.2990822,22.072297 5.9674442,22.949982 5.9339212,22.946257 C5.9339212,22.946257 5.5184102,20.538038 6.621421,18.102507 C7.101064,17.043416 7.629004,16.143967 7.87142,15.071257 C8.061198,14.231474 8.661716,13.275032 8.80892,13.102507 C9.356434,12.460813 9.434427,12.114043 9.40267,11.352507 C9.39357,11.133399 9.52767,10.258757 9.52767,10.258757 C9.52767,10.258757 9.43024,10.0452 9.34017,9.977507 C9.068543,9.773368 9.133459,9.379932 9.33009,9.05294 C9.436936,8.875258 9.764816,8.608087 9.764816,8.608087 C9.55081,8.257334 9.165235,7.839652 9.234572,6.409272 C9.262182,5.839762 9.590822,5.098003 10.403058,5.205647 C10.779208,5.255497 11.25745,5.841476 11.378586,6.522986 C11.436216,6.847207 11.431996,7.50945 11.431996,7.50945 C11.919911,7.310858 12.443861,7.41105 12.848741,7.58611 C12.848741,7.58611 12.564338,6.887102 12.690741,6.29028 C12.772871,5.902513 13.172641,5.387496 13.934114,5.105516 C14.337056,4.956304 14.91626,5.006256 15.134404,5.376479 C15.351712,5.745284 15.542193,6.132167 15.693323,6.532666 C15.749533,6.681617 15.828023,6.833732 15.821349,6.992795 C15.806589,7.344641 15.800259,7.661516 15.617918,8.005351 C15.503719,8.220696 15.198662,8.604483 15.198662,8.604483 C15.198662,8.604483 15.790399,8.841057 15.748879,9.310632 C15.721579,9.619393 15.762049,9.844629 15.465174,10.196191 C15.668299,10.321191 15.949527,11.047335 16.465174,12.227442 C16.826183,13.053645 17.057057,13.898198 17.371424,14.727442 C17.681528,15.545439 18.26201,16.242519 18.558924,17.039941 C19.492018,19.545954 19.009345,22.451245 18.840174,22.571191 L19.183924,22.571191 C19.181224,22.561011 19.181224,22.550121 19.183924,22.539941 C19.468696,22.164562 19.783584,21.954174 20.121424,21.821191 C21.035041,20.396087 21.110528,19.044366 20.746424,17.914941 C20.38232,16.785516 19.55818,15.894912 18.558924,15.383692 C18.556224,15.373512 18.556224,15.362622 18.558924,15.352442 C18.548744,15.355142 18.537854,15.355142 18.527674,15.352442 C18.524974,15.342262 18.524974,15.331372 18.527674,15.321192 C18.524974,15.311012 18.524974,15.300122 18.527674,15.289942 C18.533674,15.276092 18.545074,15.264692 18.558924,15.258692 C18.569104,15.255992 18.579994,15.255992 18.590174,15.258692 C18.600354,15.255992 18.611244,15.255992 18.621424,15.258692 C19.647425,15.783594 20.52775,16.689456 20.902674,17.852441 C21.274345,19.005338 21.277226,20.322589 20.371424,21.758691 C20.676295,21.680961 21.004298,21.628184 21.308924,21.664941 C21.673618,21.708941 21.981952,21.839356 22.246424,21.977441 C22.510896,22.115526 22.727224,22.281732 22.808924,22.446191 C22.860484,22.54997 22.702946,22.752942 22.558924,22.633691 C22.454076,22.546871 22.309955,22.327259 22.058924,22.196191 C21.807893,22.065124 21.533284,21.925841 21.183924,21.883691 C20.485203,21.799381 19.855203,21.841151 19.277674,22.602441 C19.280374,22.612621 19.280374,22.623511 19.277674,22.633691 C19.267494,22.636391 19.256604,22.636391 19.246424,22.633691 C19.245563,22.636291 19.216024,22.631091 19.215174,22.633691 C18.876197,23.668645 19.409717,24.352528 20.090174,24.539941 C21.874666,25.031431 22.844974,23.132097 22.902674,22.914941 L23.277674,22.946191 C23.621424,22.274316 23.821659,21.022816 23.621424,20.071191 C23.396935,19.004299 23.173482,18.066712 22.746424,17.008691 C22.286379,15.869017 21.961855,15.018804 20.84017,13.852502 C20.125176,13.109068 19.579358,12.077471 19.15267,11.258752 C18.947853,10.865754 18.705743,10.630017 18.49642,10.102502 C18.181235,9.308203 18.104681,8.425676 18.09017,7.571252 C18.05188,5.316482 17.796348,3.004253 15.96517,1.571252 C15.100388,0.894511 13.752034,0.639704 12.55892,0.696252 L12.55892,0.696257 Z" id="path4055"></path>
                <path d="M4.4026712,22.383757 C4.3360912,22.384857 4.2745652,22.400937 4.1214212,22.571257 C3.9167352,22.798905 3.5641842,23.492407 3.2151712,23.946257 C2.5167042,24.684909 1.4941102,24.710552 0.7117052,24.890689 C0.4971572,24.940089 0.3486302,25.131636 0.4026712,25.383757 C0.6020622,26.313981 0.5694082,26.889494 0.5276712,27.696257 C0.5012512,28.206873 0.3679292,28.477532 0.3323582,28.977507 C0.2400882,29.26631 0.4862842,29.3772 0.6839212,29.391569 C1.7603392,29.718401 2.6642402,29.927378 3.7464212,30.196257 C4.8286022,30.465136 5.7746222,30.707292 6.465171,31.071257 C7.252057,31.485999 7.74411,31.511209 8.34017,31.290007 C8.871377,31.092872 9.395145,30.505522 9.46517,30.008757 C9.54141,29.467872 9.42884,29.294305 9.15267,28.883757 C7.717461,26.750191 7.137299,25.477868 5.6839212,23.415007 C5.3963632,23.006861 5.1061112,22.707665 4.6526712,22.446257 C4.6083112,22.420687 4.5093352,22.382027 4.4026712,22.383757 L4.4026712,22.383757 Z" id="path4121"></path>
                <path d="M18.40267,22.977507 C18.199071,22.969607 18.050415,23.006157 17.99642,23.040007 C17.94242,23.073857 17.92929,23.070937 17.93392,23.290007 C17.95438,24.257635 17.98561,25.548026 17.93392,26.696257 C17.86904,28.137415 17.325797,29.460113 17.55892,30.602507 C17.61039,30.854755 17.700307,31.042717 17.87142,31.196257 C18.042533,31.349797 18.342117,31.478826 18.84017,31.540007 C19.969803,31.678772 20.710401,31.123859 21.40267,30.383757 C22.162982,29.570911 23.035405,29.06535 23.90267,28.602507 C24.627984,28.21542 25.144038,28.104355 25.68392,27.508757 C25.75911,27.425807 25.810156,27.30774 25.80892,27.227507 C25.80772,27.147277 25.79992,27.097663 25.65267,27.008757 C24.292618,26.187656 23.350482,25.12187 23.34017,23.883757 C23.33787,23.607397 23.34607,23.549712 23.34017,23.383757 C23.33707,23.295157 23.193064,23.243432 23.12142,23.352507 C23.003463,23.532092 22.828823,23.853904 22.59017,24.133757 C22.119268,24.685953 21.574106,24.928702 21.09017,25.008757 C20.606234,25.088817 20.19583,25.014857 19.96517,24.946257 C19.170632,24.709803 18.789082,24.09971 18.71517,23.571257 C18.67723,23.299972 18.74335,23.175791 18.77767,22.977507 C18.651943,22.972707 18.69599,22.988887 18.40267,22.977507 L18.40267,22.977507 Z" id="path4123"></path>
            </g>
        </g>
    </g>
</svg>

<svg width="26" height="32" xmlns="http://www.w3.org/2000/svg">
  <g fill="#D3D7D9" fill-rule="evenodd">
    <path d="M9.965 6.321c-.41.112-.466.9-.281 1.282.2.41.344.607.469.718.25-.198.475-.403.75-.562 0-.14.005-.289 0-.438-.03-.819-.5-1.12-.938-1zM14.278 6.259c-.394-.046-.86.252-.875.812-.01.321-.013.576.093.782.263.111.521.225.782.343.364-.074.733-.345.75-.75.034-.817-.282-1.133-.75-1.187zM12.09 7.665c-.205-.013-.437.032-.812.219-.566.281-1.158.777-1.594 1.187a.82.82 0 0 0-.219.407c-.028.14-.01.222.063.28.054.044.05.047.062.063.013.017.018.044.031.063.015.014.016.047.032.062.016.021.04.031.062.063.303.284.712.592 1.375.656.835.081 2.088-.254 4-1.531a.061.061 0 0 1 .031 0 .061.061 0 0 1 .032 0 .061.061 0 0 1 0 .031.061.061 0 0 1 .03 0 .061.061 0 0 1 0 .031.061.061 0 0 1 0 .032.061.061 0 0 1-.03 0 .061.061 0 0 1 0 .03c-1.925 1.286-3.188 1.586-4.063 1.5a2.264 2.264 0 0 1-1.031-.343c.006.008-.006.024 0 .031.267.345.63.781 1.062 1.125.136.108.528.156.97.094.44-.062.929-.233 1.218-.437.619-.439 1.056-.62 1.531-.938.17-.114.329-.22.438-.344a.643.643 0 0 0 .187-.468c.004-.204.002-.286-.031-.344-.033-.059-.158-.163-.5-.313-.705-.308-1.426-.677-2.125-.937-.278-.104-.514-.206-.719-.219zM9.298 28.203c.727.688 1.938.666 2.948.626 2.267-.089 3.714-1.227 5.261-2.711 0 .359-.047 1.254-.266 2.296-.281 1.338-.158 1.908-.096 2.267-.648-.312-.77-.3-1.586-.297-1.112.003-2.182-.014-3.266 0-.915.011-1.655.061-2.694.538.711-1.149.379-1.797-.3-2.719z"/>
    <path d="M12.559.696c-.716.034-1.374.19-1.844.407-1.141.525-2.04 1.256-2.219 2.875-.137 1.253.069 2.645.094 3.906.05 2.478.164 2.894.156 3.125-.016.5-2.433 3.356-2.812 4.281-.438 1.07-.909 2.05-1.313 3.219-.181.526-.46.993-.75 1.469-.168.275-.487.407-.468.937.013.375.051.75.03 1.125-.01.202.157.375.157.375-.043-.053.49-.64.938-.531.771.188 1.44 1.066 1.406 1.062 0 0-.416-2.408.687-4.843.48-1.06 1.008-1.959 1.25-3.032.19-.84.79-1.796.938-1.968.547-.642.625-.989.594-1.75-.01-.22.125-1.094.125-1.094s-.098-.214-.188-.281c-.271-.205-.207-.598-.01-.925.107-.178.435-.445.435-.445-.214-.35-.6-.768-.53-2.199.027-.57.356-1.311 1.168-1.203.376.05.854.635.976 1.317.057.324.053.986.053.986.488-.198 1.012-.098 1.417.077 0 0-.285-.699-.158-1.296.082-.387.482-.903 1.243-1.184.403-.15.982-.1 1.2.27.218.37.408.756.56 1.157.056.149.134.3.127.46-.014.352-.02.669-.203 1.012-.114.216-.42.6-.42.6s.592.236.55.706c-.026.308.014.534-.283.885.203.125.485.851 1 2.031.361.827.592 1.671.906 2.5.31.818.891 1.516 1.188 2.313.933 2.506.45 5.411.281 5.531h.344a.061.061 0 0 1 0-.031c.285-.375.6-.586.937-.719.914-1.425.99-2.777.625-3.906-.364-1.13-1.188-2.02-2.187-2.531a.061.061 0 0 1 0-.032.061.061 0 0 1-.031 0 .061.061 0 0 1 0-.03.061.061 0 0 1 0-.032.06.06 0 0 1 .03-.031.061.061 0 0 1 .032 0 .061.061 0 0 1 .031 0c1.026.525 1.907 1.43 2.282 2.593.371 1.153.374 2.47-.532 3.907.305-.078.633-.13.938-.094.365.044.673.174.937.312.265.139.481.305.563.47.051.103-.106.306-.25.187-.105-.087-.249-.307-.5-.438-.251-.13-.526-.27-.875-.312-.699-.085-1.329-.043-1.906.718a.061.061 0 0 1 0 .032.061.061 0 0 1-.032 0c0 .002-.03-.003-.03 0-.34 1.035.194 1.719.874 1.906 1.785.491 2.755-1.408 2.813-1.625l.375.031c.343-.672.544-1.923.343-2.875-.224-1.067-.448-2.004-.875-3.062-.46-1.14-.784-1.99-1.906-3.156-.715-.744-1.26-1.776-1.687-2.594-.205-.393-.447-.629-.657-1.156-.315-.795-.391-1.677-.406-2.532-.038-2.255-.294-4.567-2.125-6C15.1.895 13.752.64 12.56.696z"/>
    <path d="M4.403 22.384c-.067 0-.128.017-.282.187-.204.228-.557.921-.906 1.375-.698.739-1.72.765-2.503.945a.4.4 0 0 0-.31.493c.2.93.167 1.505.126 2.312-.027.51-.16.782-.196 1.282-.092.288.154.4.352.414 1.076.326 1.98.535 3.062.804 1.083.27 2.029.511 2.72.875.786.415 1.278.44 1.874.219.531-.197 1.055-.784 1.125-1.281.076-.541-.036-.715-.312-1.125-1.436-2.134-2.016-3.406-3.47-5.469-.287-.408-.577-.707-1.03-.969a.527.527 0 0 0-.25-.062zM18.403 22.978c-.204-.008-.353.028-.407.062-.054.034-.067.03-.062.25.02.968.052 2.258 0 3.406-.065 1.441-.608 2.764-.375 3.907.051.252.141.44.312.593.172.154.471.283.97.344 1.129.139 1.87-.416 2.562-1.156.76-.813 1.632-1.319 2.5-1.781.725-.388 1.241-.499 1.78-1.094a.47.47 0 0 0 .126-.281c-.001-.08-.01-.13-.156-.22-1.36-.82-2.303-1.886-2.313-3.124-.002-.277.006-.334 0-.5-.003-.089-.147-.14-.219-.031-.118.18-.292.5-.53.78-.472.553-1.017.796-1.5.876-.485.08-.895.006-1.126-.063-.794-.236-1.176-.846-1.25-1.375-.038-.271.028-.395.063-.593-.126-.005-.082.01-.375 0z"/>
  </g>
</svg>
